svg/black/drop.svg

<svg height="32" viewBox="0 0 32 32" width="32" xmlns="http://www.w3.org/2000/svg"><g fill="none"><circle cx="16" cy="16" fill="#000" r="16"/><g fill="#fff" transform="translate(8 3)"><path d="m15.1342697 14.4666667c-.5514982-2.4265918-2.264045-5.10280902-2.264045-5.10280902 1.9737828 5.38726592 1.2132959 9.45093632.690824 11.75561802 0 0-.690824 2.577528.7953183.429588 1.8518727-2.6878277.7779027-7.082397.7779027-7.082397z"/><path d="m10.2578652 4.91123596c1.0275281 3.65730337 1.4919475 6.76310864 1.6370786 9.35224714.2554307 4.4119851-.4179775 7.3146068-.835955 8.8471911-.1335206.4992509.4237827.8707865.7488764.4934457.0058052-.0058053.0058052-.0058053.0058052-.0058053.8127341-.9288389 1.1958802-3.1058052 1.3758427-5.0157303.0174157-.2089888.0348315-.4179776.0522472-.6269663.1683521-2.2988764.0696629-4.6209738-.4702247-6.844382-.9926966-4.10430716-2.5136704-6.20000004-2.5136704-6.20000004z"/><path d="m8.417603 11.3550562c-.24962547-6.00842699-.70243446-11.34344571-.70243446-11.34344571s-.45861423 5.06797752-.7082397 10.94288391c-.04063671.9520599-.07546817 1.9215356-.10449438 2.8968165-.04063671 1.4164794-.05805244 2.838764-.05805244 4.2146067.00580525 2.4440075.09868914 4.7370787.31928839 6.5657303.08707865.7256555 1.02752809.7256555 1.11460674 0 .15093633-1.2481273.23801498-2.7807116.27284645-4.4642322.03483146-1.7125468.02322097-3.5760299-.02322098-5.4627341-.02902622-1.1146067-.06385768-2.2408239-.11029962-3.3496254z"/><path d="m1.39906367 18.5941948c-.12191011-.9926967-.1741573-2.1363296-.09288389-3.4134832.05805243-.8940075.18576779-1.8518726.40636704-2.8735955.20318352-.9346442.4818352-1.9157303.85917603-2.94906367 0 0-1.20749064 1.88670417-1.91573034 3.92434457-.13932584.3889513-.25543071.7895131-.34250936 1.1784644 0 0-.2264045 1.0217229-.26123596 2.3859551-.02322097.9462547.05224719 2.0666666.35411985 3.123221.15674157.5514981.37734083 1.0855805.67921348 1.5732209 0 0 1.48614233 2.2117978.79531836-.429588-.17415731-.6792135-.3599251-1.526779-.48183521-2.5194756z"/><path d="m3.51797753 17.4099251c-.04644195-1.0681648-.03483146-2.264045.05805243-3.5876405.02902622-.4121722.06385768-.8417603.11029963-1.2771535.04644195-.4411985.10449438-.8882023.16835206-1.358427.26123595-1.88089886.68501872-3.96498125 1.32940075-6.27546814 0 0-1.52677903 2.09569288-2.51947566 6.20000004-.05224719.2205992-.09868914.4411985-.14513108.6559925-.17996255.8940075-.29606742 1.7996254-.35411985 2.7168539-.06966293 1.1494382-.0522472 2.3104869.02902621 3.4657303.01741573.2089888.03483146.4237828.05224719.6327716.17996255 1.9099251.55730337 4.0868914 1.3758427 5.0157303 0 0 0 0 .00580524.0058053.32509364.3715355.88820225 0 .74887641-.4934457-.30187266-1.1320225-.74887641-3.0129214-.85917603-5.7007491z"/><path d="m6.05486891 17.6363296c-.02902621-1.1958802-.0406367-2.5310862-.01741573-3.9940075.01161049-.8765918.03483146-1.7996255.07546817-2.7691011.09868914-2.50205995.56891386-6.11872662.89400749-9.18389516 0 0-1.60224719 3.31479401-2.33370787 9.29419476-.09868913.8185393-.19157303 1.7009363-.26123595 2.6529963-.01741573.2322097-.03483146.4644194-.05224719.7082397 0 0-.08707865 1.265543-.05224719 2.9722846.04644194 2.194382.29026217 5.1202247 1.19588015 7.0359551.02902621.0580524.06385767.1102996.11029962.1509363 0 0 .00580525.0058052.00580525.0058052.34250936.3250937.87078651.0174158.82434456-.4876404-.11029962-1.097191-.31348314-3.2741573-.38895131-6.3857678z"/><path d="m9.37546816 17.6363296c.02902622-1.1958802.04063671-2.5310862.01741574-3.9940075-.01161049-.8765918-.03483147-1.7996255-.07546817-2.7691011-.09868914-2.50205995-.56891386-6.11872662-.89400749-9.18389516 0 0 1.60224716 3.31479401 2.33370786 9.29419476.0986891.8185393.191573 1.7009363.261236 2.6529963.0174157.2322097.0348314.4644194.0522472.7082397 0 0 .0870786 1.265543.0522471 2.9722846-.0464419 2.194382-.2902621 5.1202247-1.19588011 7.0359551-.02902622.0580524-.06385768.1102996-.11029962.1509363 0 0-.00580525.0058052-.00580525.0058052-.34250936.3250937-.87078651.0174158-.82434457-.4876404.11610487-1.097191.31348315-3.2741573.38895131-6.3857678z"/></g></g></svg>

<?xml version="1.0" encoding="UTF-8"?>
<svg width="32px" height="32px" viewBox="0 0 32 32" version="1.1" xmlns="http://www.w3.org/2000/svg" xmlns:xlink="http://www.w3.org/1999/xlink">
    <!-- Generator: Sketch 50 (54983) - http://www.bohemiancoding.com/sketch -->
    <title>black/drop</title>
    <desc>Created with Sketch.</desc>
    <defs></defs>
    <g id="black/drop" stroke="none" stroke-width="1" fill="none" fill-rule="evenodd">
        <circle id="Combined-Shape" fill="#000000" fill-rule="nonzero" cx="16" cy="16" r="16"></circle>
        <g id="Dropil-(DROP)" transform="translate(8.000000, 3.000000)" fill="#FFFFFF" fill-rule="nonzero">
            <g id="Group">
                <path d="M15.1342697,14.4666667 C14.5827715,12.0400749 12.8702247,9.36385768 12.8702247,9.36385768 C14.8440075,14.7511236 14.0835206,18.814794 13.5610487,21.1194757 C13.5610487,21.1194757 12.8702247,23.6970037 14.356367,21.5490637 C16.2082397,18.861236 15.1342697,14.4666667 15.1342697,14.4666667 Z" id="Shape"></path>
                <path d="M10.2578652,4.91123596 C11.2853933,8.56853933 11.7498127,11.6743446 11.8949438,14.2634831 C12.1503745,18.6754682 11.4769663,21.5780899 11.0589888,23.1106742 C10.9254682,23.6099251 11.4827715,23.9814607 11.8078652,23.6041199 C11.8136704,23.5983146 11.8136704,23.5983146 11.8136704,23.5983146 C12.6264045,22.6694757 13.0095506,20.4925094 13.1895131,18.5825843 C13.2069288,18.3735955 13.2243446,18.1646067 13.2417603,17.955618 C13.4101124,15.6567416 13.3114232,13.3346442 12.7715356,11.111236 C11.778839,7.00692884 10.2578652,4.91123596 10.2578652,4.91123596 Z" id="Shape"></path>
                <path d="M8.417603,11.3550562 C8.16797753,5.34662921 7.71516854,0.0116104869 7.71516854,0.0116104869 C7.71516854,0.0116104869 7.25655431,5.07958801 7.00692884,10.9544944 C6.96629213,11.9065543 6.93146067,12.87603 6.90243446,13.8513109 C6.86179775,15.2677903 6.84438202,16.6900749 6.84438202,18.0659176 C6.85018727,20.5099251 6.94307116,22.8029963 7.16367041,24.6316479 C7.25074906,25.3573034 8.1911985,25.3573034 8.27827715,24.6316479 C8.42921348,23.3835206 8.51629213,21.8509363 8.5511236,20.1674157 C8.58595506,18.4548689 8.57434457,16.5913858 8.52790262,14.7046816 C8.4988764,13.5900749 8.46404494,12.4638577 8.417603,11.3550562 Z" id="Shape"></path>
                <path d="M1.39906367,18.5941948 C1.27715356,17.6014981 1.22490637,16.4578652 1.30617978,15.1807116 C1.36423221,14.2867041 1.49194757,13.328839 1.71254682,12.3071161 C1.91573034,11.3724719 2.19438202,10.3913858 2.57172285,9.35805243 C2.57172285,9.35805243 1.36423221,11.2447566 0.655992509,13.282397 C0.516666667,13.6713483 0.400561798,14.0719101 0.313483146,14.4608614 C0.313483146,14.4608614 0.0870786517,15.4825843 0.052247191,16.8468165 C0.0290262172,17.7930712 0.104494382,18.9134831 0.406367041,19.9700375 C0.563108614,20.5215356 0.783707865,21.055618 1.08558052,21.5432584 C1.08558052,21.5432584 2.57172285,23.7550562 1.88089888,21.1136704 C1.70674157,20.4344569 1.52097378,19.5868914 1.39906367,18.5941948 Z" id="Shape"></path>
                <path d="M3.51797753,17.4099251 C3.47153558,16.3417603 3.48314607,15.1458801 3.57602996,13.8222846 C3.60505618,13.4101124 3.63988764,12.9805243 3.68632959,12.5451311 C3.73277154,12.1039326 3.79082397,11.6569288 3.85468165,11.1867041 C4.1159176,9.30580524 4.53970037,7.22172285 5.1840824,4.91123596 C5.1840824,4.91123596 3.65730337,7.00692884 2.66460674,11.111236 C2.61235955,11.3318352 2.5659176,11.5524345 2.51947566,11.7672285 C2.33951311,12.661236 2.22340824,13.5668539 2.16535581,14.4840824 C2.09569288,15.6335206 2.11310861,16.7945693 2.19438202,17.9498127 C2.21179775,18.1588015 2.22921348,18.3735955 2.24662921,18.5825843 C2.42659176,20.4925094 2.80393258,22.6694757 3.62247191,23.5983146 C3.62247191,23.5983146 3.62247191,23.5983146 3.62827715,23.6041199 C3.95337079,23.9756554 4.5164794,23.6041199 4.37715356,23.1106742 C4.0752809,21.9786517 3.62827715,20.0977528 3.51797753,17.4099251 Z" id="Shape"></path>
                <path d="M6.05486891,17.6363296 C6.0258427,16.4404494 6.01423221,15.1052434 6.03745318,13.6423221 C6.04906367,12.7657303 6.07228464,11.8426966 6.11292135,10.873221 C6.21161049,8.37116105 6.68183521,4.75449438 7.00692884,1.68932584 C7.00692884,1.68932584 5.40468165,5.00411985 4.67322097,10.9835206 C4.57453184,11.8020599 4.48164794,12.6844569 4.41198502,13.6365169 C4.39456929,13.8687266 4.37715356,14.1009363 4.35973783,14.3447566 C4.35973783,14.3447566 4.27265918,15.6102996 4.30749064,17.3170412 C4.35393258,19.5114232 4.59775281,22.4372659 5.50337079,24.3529963 C5.532397,24.4110487 5.56722846,24.4632959 5.61367041,24.5039326 C5.61367041,24.5039326 5.61947566,24.5097378 5.61947566,24.5097378 C5.96198502,24.8348315 6.49026217,24.5271536 6.44382022,24.0220974 C6.3335206,22.9249064 6.13033708,20.7479401 6.05486891,17.6363296 Z" id="Shape"></path>
                <path d="M9.37546816,17.6363296 C9.40449438,16.4404494 9.41610487,15.1052434 9.3928839,13.6423221 C9.38127341,12.7657303 9.35805243,11.8426966 9.31741573,10.873221 C9.21872659,8.37116105 8.74850187,4.75449438 8.42340824,1.68932584 C8.42340824,1.68932584 10.0256554,5.00411985 10.7571161,10.9835206 C10.8558052,11.8020599 10.9486891,12.6844569 11.0183521,13.6365169 C11.0357678,13.8687266 11.0531835,14.1009363 11.0705993,14.3447566 C11.0705993,14.3447566 11.1576779,15.6102996 11.1228464,17.3170412 C11.0764045,19.5114232 10.8325843,22.4372659 9.92696629,24.3529963 C9.89794007,24.4110487 9.86310861,24.4632959 9.81666667,24.5039326 C9.81666667,24.5039326 9.81086142,24.5097378 9.81086142,24.5097378 C9.46835206,24.8348315 8.94007491,24.5271536 8.98651685,24.0220974 C9.10262172,22.9249064 9.3,20.7479401 9.37546816,17.6363296 Z" id="Shape"></path>
            </g>
        </g>
    </g>
</svg>
